X:1
T:Reges Tharsis - Lutz
T:#
%%score { 1 | 2 } 3 4 { ( 5 6 ) | ( 7 8 ) }
L:1/8
Q:1/4=90
M:4/4
K:C
V:1 treble nm="Soprano I" snm="S1"
V:2 treble 
V:3 treble nm="Tenor" snm="T"
V:4 bass nm="Bass" snm="B"
V:5 bass nm="Organ"
V:6 bass 
V:7 bass 
V:8 bass 
V:1
 z8 | z8 | z8 | z8 | z8 | z8 |[M:4/4] z8 | z8 | z8 | z8 | z8 | z8 ||[M:4/4] z8 | z8 | z8 | z8 | %16
w: ||||||||||||||||
 z8 | z8 |[M:4/4] z8 | z8 | z8 | z8 | z8 | z8 ||[K:Eb][M:4/4][K:treble] x8 | x8 | x8 | x8 | x8 | %29
w: |||||||||||||
 x8 | x8 | x8 | x8 | x8 | x8 | x8 |[M:4/4] (G3 F E2) G2 | (B3 A) G2 B2 | c4 c4 | B8 | %40
w: |||||||Re\- * * ges|Thar\- * sis et|in- su-|lae|
 e2 c2 (B2 =A2) | c3 B B4 | (B4 G2) E2 | F3 F E4 | (B4 G2 E2) | F4 E2 z2 | B4 c2 A2 | %47
w: mu- ne- ra *|of- fe- rent:|re\- * ges|A- ra- bum|et * *|sa- ba|do- na ad-|
 (e2 d2)[Q:1/4=45] !fermata!e2[Q:1/4=90] z B | B2 c2 G2 G2 | (F2 G2) E4 | B2 B2 E2 A2 | %51
w: du\- * cent: et|a- do- ra- bunt|e\- * um|o- mnes re- ges|
 !fermata!F8[Q:1/4=60] |[Q:1/4=90] E8 | z8 | z8 |] %55
w: ter-|rae.|||
V:2
 x8 | x8 | x8 | x8 | x8 | x8 |[M:4/4] x8 | x8 | x8 | x8 | x8 | x8 ||[M:4/4] x8 | x8 | x8 | x8 | %16
w: ||||||||||||||||
 x8 | x8 |[M:4/4] x8 | x8 | x8 | x8 | x8 | x8 ||[K:Eb][M:4/4][I:staff -1] (G3 F E2) G2 | %25
w: ||||||||Re\- * * ges|
 (B3 A) G2 B2 | c4 c4 | B8 | e2 c2 (B2 =A2) | c3 B B4 | (B4 G2) E2 | F3 F E4 | (B4 G2 E2) | %33
w: Thar\- * sis et|in- su-|lae|mu- ne- ra *|of- fe- rent:|re\- * ges|A- ra- bum|et * *|
 F4 E2[I:staff +1] z2 |[I:staff -1] B4 c2 A2 | (e2 d2) e4 |[M:4/4][I:staff +1][K:treble] E8 | %37
w: sa- ba|do- na ad-|du\- * cent:|et|
 G3 F E2 G2 | A8 | G8 | G2 E2 D2 C2 | E4 D4 | G4 E4 | (E2 D2) E4 | G4 E4 | (E2 D2) E2 z2 | %46
w: a- do- ra- bunt|e-|um|o- mnes re- ges|ter- rae,|o- mnes|gen\- * tes|ser- vient|e\- * i,|
 (G4 =E2) F2 | A4 !fermata!G2 z E | E2 E2 E2 E2 | (E2 D2) B,4 | _D2 D2 C2 E2 | (E6 !fermata!D2) | %52
w: ser\- * vient|e- i: et|a- do- ra- bunt|e\- * um|o- mnes re- ges|ter\- *|
 E8 | z8 | z8 |] %55
w: rae.|||
V:3
 z8 | z8 | z8 | z8 | z8 | z8 |[M:4/4] z8 | z8 | z8 | z8 | z8 | z8 || %12
w: ||||||||||||
[K:Eb][M:4/4][K:treble-8] (G3 F E2) G2 | (B3 A) G2 B2 | c4 c4 | B8 | e2 c2 (B2 =A2) | c3 B B4 | %18
w: Re\- * * ges|Thar\- * sis et|in- su-|lae|mu- ne- ra *|of- fe- rent:|
 (B4 G2) E2 | F3 F E4 | (B4 G2 E2) | F4 E2 z2 | B4 c2 A2 | (e2 d2) e4 || E8 | G3 F E2 G2 | A8 | %27
w: re\- * ges|A- ra- bum|et * *|sa- ba|do- na ad-|du\- * cent:|et|a- do- ra- bunt|e-|
 G8 | G2 E2 D2 C2 | E4 D4 | G4 E4 | (E2 D2) E4 | G4 E4 | (E2 D2) E2 z2 | (G4 =E2) F2 | A4 G4 | %36
w: um|o- mnes re- ges|ter- rae,|o- mnes|gen\- * tes|ser- vient|e\- * i,|ser\- * vient|e- i|
 (B3 A G2) B2 | e4 e2 E2 | c4 d4 | e6 (B2 | c3) G F4 | =A3 A B4 | e4 G4 | c2 B2 G4 | (e4 G4) | %45
w: Re\- * * ges|Thar- sis et|in- su-|lae mu\-|* ne- ra|of- fe- rent:|re- ges|A- ra- bum|et *|
 (c2 B2) G4 | G4 c2 c2 | f4 !fermata!e2 z G | B2 A2 c2 c2 | (A2 B2) G4 | E2 E2 E2 _c2 | %51
w: sa\- * ba|do- na ad-|du- cent: et|a- do- ra- bunt|e\- * um|o- mnes re- ges|
 (B4 !fermata!A4) | G8 | z8 | z8 |] %55
w: ter\- *|rae.|||
V:4
[K:Eb]"^Andante religioso""^Reges Tharsis""^Offertory for Epiphany""^W. Meyer Lutz\n(1829-1903)"!mf! (G,3 F, E,2) G,2 | %1
w: Re\- * * ges|
 (B,3 A,) G,2 B,2 | C4 C4 | B,8 | E2 C2 (B,2 =A,2) | C3 B, B,4 |[M:4/4] (B,4 G,2) E,2 | %7
w: Thar\- * sis et|in- su-|lae|mu- ne- ra *|of- fe- rent;|re\- * ges|
 F,3 F, E,4 |!p! (B,4 G,2 E,2) | F,4 E,2 z2 | B,4!<(! C2 A,2!<)! |"^(or)" (E2!>(! D2)!>)! E4 || %12
w: A- ra- bum|et * *|sa- ba|do- na ad-|du\- * cent:|
!mf! E,8 | G,3 F, E,2 G,2 | A,8 | G,8 | G,2 E,2 D,2 C,2 | E,4 D,4 | G,4 E,4 | (E,2 D,2) E,4 | %20
w: et|a- do- ra- bunt|e-|um|o- mnes re- ges|ter- rae,|o- mnes|gen\- * tes|
 G,4 E,4 | (E,2 D,2) E,2 z2 | (G,4 =E,2) F,2 | A,4 G,4 || (B,3 A, G,2) B,2 | E4 E2 E,2 | C4 D4 | %27
w: ser- vient|e\- * i,|ser\- * vient|e- i|Re\- * * ges|Thar- sis et|in- su-|
 E6 B,2 | C3 G, F,4 | =A,3 A, B,4 | E4 G,4 | C2 B,2 G,4 | (E4 G,4) | (C2 B,2) G,4 | E4 G,2 A,2 | %35
w: lae mu-|* ne- ra|of- fe- rent:|re- ges|A- ra- bum|et *|sa\- * ba|do- na ad-|
 B,4 E,4 | E,8 | E,8 | A,8 | E,8 | C,3 E, F,4 | F,3 F, B,4 | E,4 E,4 | A,2 B,2 E,4 | E,8 | %45
w: du- cent:|Re-|ges|Thar-|sis|mu- ne- ra|of- fe- rent:|re- ges|A- ra- bum|et|
 A,2 B,2 E,4 | E,4 C,2 F,2 | (B,2 =B,2) !fermata!C2 z G, | G,2 A,2 A,,2 =A,,2 | G,,4 C,4 | %50
w: sa- * ba|do- na ad-|du\- * cent: et|a- do- ra- bunt|e- um|
 G,,2 G,,2 A,,2 F,,2 | !fermata!B,,8 | E,8 | z8 | z8 |] %55
w: o- mnes re- ges|ter-|rae.|||
V:5
[K:Eb] (G,8 | B,8) | (C8 | B,2) E,2 G,2 B,2 | ([G,E]2 [E,G,C]2 [D,B,]2 [C,=A,]2) | %5
 ([=A,C]4 [D,B,]4) |[M:4/4] (B,4 G,2 E,2) | (C2 B,2 E,2 G,2) |!p! B,4 G,2 G,2 | %9
 (_C2 B,2 G,2) [A,B,]2 | B,4 C2 A,2 | (E2 D2 E2) z2 ||!mf! (G,3 F, E,2 G,2) | %13
 ([G,B,]3 [F,A,] G,2 [G,B,]2) | ([A,C]8 | [G,B,]8) | [G,CE]2 [E,G,C]2 [D,F,B,]2 [C,E,=A,]2 | %17
 !>![E,=A,C]3 [D,B,] [D,B,]4 |[K:treble] z2 B,2 E2 G2 | E2 D2 E2 z2 | (B,2 B,2 E2 G2) | %21
 ([CE]2 [B,D]2 [B,E])(G,A,=A,) | B,4 [B,C]2 A,2 | (E2 D2 E2) z2 || (3B,2 C2 D2 (3E2 F2 G2 | %25
 (3:2:2[GB]4 A2 (3G2 F2 E2 | (3[Ac]2 E2 [Ac]2 (3[Ac]2 E2 [Ac]2 | (3[GB]2 [FA]2 [EG]2 (3G2 c2 B2 | %28
 (3e2 G2 c2 (3B2 d2 =A2 | (3c2 F2 B2 B4 | (3B2 A2 G2 G4 | F4 (3E2 G2 c2 | (3(B2 A2 G2) G4 | %33
 F4 (3([G,E]2 A,2 =A,2) | (3(B,2 E2 G2) (3[Bc]2 =E2 [Ac]2 | (3:2:2(e4 d2) e2 z2 | %36
 z B,[EG][A,F] [G,E]B,EG | [GB]B,[GB][FA] [EG]B,[EG]B | c4 c3 c | B3 B G3 G | e2 c2 B2 =A2 | %41
 c4 B4 | B2 x2 x4 | F3 F x4 | [GB]B,EA GEB,E | F3 F E2 z2 | B4 [Bc]2 c2 | e2 d2 !fermata!e2 z B | %48
 B2 c2 [CEG]2 [CEG]2 | ([A,EF]2 [B,DG]2) ([G,E]B,EG) | [_DB]4 [CE]2 [_CEA]2 | F8 | %52
 ([G,E]G,BE GEGB) | e2 z2 [Ae]2 z2 | [Ge]8 |] %55
V:6
[K:Eb] x8 | x8 | B,2 A,2 G,2 A,2 | G,2 x6 | x8 | x8 |[M:4/4] E,8 | F,4 E,4 | x8 | F,4 x4 | x8 | %11
 x8 || B,,2 =B,,2 C,2 B,,2 | _B,,2 D,2 E,4 | E,8 | z2 (E,2 D,2 E,2) | x8 | x8 |[K:treble] x8 | %19
 _C3 B, B,2 x2 | x8 | x8 | x8 | x8 || (3:2:2B,4 A,2 G,4 | (3:2:2[GB]2 B,4 B,4 | x8 | x4 E4 | x8 | %29
 (3:2:2E4 D2 D4 | B,8 | (3:2:2[CE]4 [B,D]2 G,2 x2 | B,8 | (3:2:2([CE]4 [A,D]2) x4 | x4 x4 | %35
 (3(A2 F2 A2) G2 z2 | x8 | x8 | cCEA cDFc | BB,EB GB,EG | z G2 G z D z C | cEF=A BDFB, | %42
 GB,E_A GEB,E | FCDF EB,.E.G | x8 | xxxx x4 | GDFE =EGAF | eFAF [EG]2 z E | E4 x4 | x8 | x8 | %51
 E6 D2 | x8 | x8 | x8 |] %55
V:7
[K:Eb] [E,,B,,E,]8- | [G,,E,]8 | [A,,E,]8- | [E,,E,]2 z2 z4 | (C,,2 E,,2 [F,,F,]4) | %5
 ([F,,E,]4 B,,2) _A,,2 |[M:4/4] (G,,4 E,,2 C,2) | ([A,,E,]2 [B,,D,]2) E,4 | %8
 [G,,E,]4 ([=B,,D,]2 [C,E,]2) | [A,,E,]2 [B,,D,]2 [E,,E,]2 ([F,,D,]2 | [G,,E,]4) [A,,E,]2 F,2 | %11
 ([B,,F,A,]4 [E,,E,]2) z2 ||!mf! E,,8- | E,,8 | A,,2 G,,2 A,,2 C,2 | E,,8 | C,,2 E,,2 F,,4 | %17
 F,,4 B,,4 | x8 | F,4[I:staff -1] G,G,A,=A, |[I:staff +1] x8 | [F,A,]4 [E,G,] x x2 | x8 | %23
 A,4 G,2 x2 || B,,8- | (3:2:2B,,4 D,2 (3E,2 A,2 G,2 | x8 | x8 | x8 | x8 | %30
 (3G,2 F,2 E,2 (3E,2 B,,2 G,,2 | (3A,,2 F,,2 B,,2 E,,4 |{E,,} (3(G,2 F,2 E,2) (3(E,2 B,,2 G,,2) | %33
 (3(A,,2 F,,2 B,,2) E,,4 | [E,G,]4 [C,G,]2 [F,,F,]2 | (3:2:2F,4 B,,2 (E,C,B,,G,,) | x8 | x8 | %38
 !>!A,4 !>!A,4 | G,4 E,4 | z4 F,4- | F,4 B,,4 | E,4 E,,4 | (A,,2 B,,2) E,2 z2 | E,4 E,,4 | %45
 (A,,2 B,,2 E,)(B,,C,D,) | E,4 C,2 F,2 | [B,,B,]2 [=B,,=B,]2 !fermata![C,C]2 z G, | %48
 [G,B,]2 A,2 A,,2 =A,,2 | x8 | E,6 F,2 |[I:staff -1] B,4 A,4 |[I:staff +1] x8 | x8 | x8 |] %55
V:8
[K:Eb] x8 | x8 | x8 | x8 | x8 | x8 |[M:4/4] x8 | x8 | x8 | x8 | x8 | x8 || x8 | x8 | x8 | x8 | x8 | %17
 x8 | [E,,B,,E,G,]8 | A,,2 B,,2 z2 E,,2 | [E,G,]8 | F,,2 B,,2 E,, z z2 | G,2 D,2 [=E,G,]2 F,2 | %23
 [B,,F,]4 [E,,E,]2 B,,2 || E,,8- | E,,4 E,, z z2 | [A,,A,]4 [B,,F,]4 | [E,G,]6 z2 | %28
 [E,G,C]4 [F,B,D]4 | (3:2:2[F,=A,]4 [B,,B,]2 (3B,,2 B,2 _A,2 | x8 | x8 | x8 | x8 | x8 | x8 | %36
 [E,,E,]8- | [E,,E,]8 | A,,8 | E,,4 E,,4 | C,2 E,2 F,2 F,,2 | F,,4 B,,2 x2 | x8 | x8 | x8 | x8 | %46
 x8 | x8 | x8 | B,,8 | G,,4 A,,2 F,,2 | !fermata![B,,F,]8 | [E,,E,]8- | [E,,E,]2 z2 [E,C]2 z2 | %54
 [E,B,]8 |] %55

